images/indikatorenset/4334.svg

<?xml version="1.0" standalone="no"?><!DOCTYPE svg PUBLIC "-//W3C//DTD SVG 1.1//EN" "http://www.w3.org/Graphics/SVG/1.1/DTD/svg11.dtd"><svg xmlns:xlink="http://www.w3.org/1999/xlink" version="1.1" class="highcharts-root" style="font-family:arial;font-size:9pt;" xmlns="http://www.w3.org/2000/svg" width="485" height="415"><desc>Created with Highstock 5.0.14</desc><defs><clipPath id="highcharts-h29yh47-7"><rect x="0" y="0" width="426" height="254" fill="none"></rect></clipPath><clipPath id="highcharts-h29yh47-8"><rect x="0" y="0" width="426" height="254" fill="none"></rect></clipPath></defs><rect fill="#fbfbfb" class="highcharts-background" x="0" y="0" width="485" height="415" rx="0" ry="0"></rect><rect fill="none" class="highcharts-plot-background" x="49" y="90" width="426" height="254"></rect><g class="highcharts-label" style="cursor:pointer;" transform="translate(10,451)"><text x="0" y="0"><tspan>&gt; Indikator-Details</tspan></text></g><g class="highcharts-pane-group"></g><g class="highcharts-grid highcharts-xaxis-grid "><path fill="none" class="highcharts-grid-line" d="M 81.5 90 L 81.5 344" opacity="1"></path><path fill="none" class="highcharts-grid-line" d="M 114.5 90 L 114.5 344" opacity="1"></path><path fill="none" class="highcharts-grid-line" d="M 146.5 90 L 146.5 344" opacity="1"></path><path fill="none" class="highcharts-grid-line" d="M 179.5 90 L 179.5 344" opacity="1"></path><path fill="none" class="highcharts-grid-line" d="M 212.5 90 L 212.5 344" opacity="1"></path><path fill="none" class="highcharts-grid-line" d="M 245.5 90 L 245.5 344" opacity="1"></path><path fill="none" class="highcharts-grid-line" d="M 277.5 90 L 277.5 344" opacity="1"></path><path fill="none" class="highcharts-grid-line" d="M 310.5 90 L 310.5 344" opacity="1"></path><path fill="none" class="highcharts-grid-line" d="M 343.5 90 L 343.5 344" opacity="1"></path><path fill="none" class="highcharts-grid-line" d="M 376.5 90 L 376.5 344" opacity="1"></path><path fill="none" class="highcharts-grid-line" d="M 408.5 90 L 408.5 344" opacity="1"></path><path fill="none" class="highcharts-grid-line" d="M 441.5 90 L 441.5 344" opacity="1"></path><path fill="none" class="highcharts-grid-line" d="M 474.5 90 L 474.5 344" opacity="1"></path><path fill="none" class="highcharts-grid-line" d="M 48.5 90 L 48.5 344" opacity="1"></path></g><g class="highcharts-grid highcharts-yaxis-grid "><path fill="none" stroke="#e6e6e6" stroke-width="1" class="highcharts-grid-line" d="M 49 344.5 L 475 344.5" opacity="1"></path><path fill="none" stroke="#e6e6e6" stroke-width="1" class="highcharts-grid-line" d="M 49 281.5 L 475 281.5" opacity="1"></path><path fill="none" stroke="#e6e6e6" stroke-width="1" class="highcharts-grid-line" d="M 49 217.5 L 475 217.5" opacity="1"></path><path fill="none" stroke="#e6e6e6" stroke-width="1" class="highcharts-grid-line" d="M 49 154.5 L 475 154.5" opacity="1"></path><path fill="none" stroke="#e6e6e6" stroke-width="1" class="highcharts-grid-line" d="M 49 90.5 L 475 90.5" opacity="1"></path></g><g class="highcharts-grid highcharts-yaxis-grid "></g><rect fill="none" class="highcharts-plot-border" x="49" y="90" width="426" height="254"></rect><g class="highcharts-axis highcharts-xaxis "><path fill="none" class="highcharts-axis-line" stroke="#ccd6eb" stroke-width="1" d="M 49 344.5 L 475 344.5"></path></g><g class="highcharts-axis highcharts-yaxis "><path fill="none" class="highcharts-axis-line" d="M 49 90 L 49 344"></path></g><g class="highcharts-axis highcharts-yaxis "><path fill="none" class="highcharts-axis-line" d="M 475 90 L 475 344"></path></g><g class="highcharts-series-group"><g class="highcharts-series highcharts-series-0 highcharts-column-series highcharts-color-undefined " transform="translate(49,90) scale(1 1)" clip-path="url(#highcharts-h29yh47-8)"><rect x="9" y="59" width="16" height="196" fill="#FF8028" class="highcharts-point"></rect><rect x="41" y="69" width="16" height="186" fill="#FF8028" class="highcharts-point"></rect><rect x="74" y="74" width="16" height="181" fill="#FF8028" class="highcharts-point"></rect><rect x="107" y="74" width="16" height="181" fill="#FF8028" class="highcharts-point"></rect><rect x="140" y="72" width="16" height="183" fill="#FF8028" class="highcharts-point"></rect><rect x="172" y="70" width="16" height="185" fill="#FF8028" class="highcharts-point"></rect><rect x="205" y="70" width="16" height="185" fill="#FF8028" class="highcharts-point"></rect><rect x="238" y="82" width="16" height="173" fill="#FF8028" class="highcharts-point"></rect><rect x="271" y="80" width="16" height="175" fill="#FF8028" class="highcharts-point"></rect><rect x="303" y="83" width="16" height="172" fill="#FF8028" class="highcharts-point"></rect><rect x="336" y="82" width="16" height="173" fill="#FF8028" class="highcharts-point"></rect><rect x="369" y="79" width="16" height="176" fill="#FF8028" class="highcharts-point"></rect><rect x="402" y="83" width="16" height="172" fill="#FF8028" class="highcharts-point"></rect></g><g class="highcharts-markers highcharts-series-0 highcharts-column-series highcharts-color-undefined " transform="translate(49,90) scale(1 1)" clip-path="none"></g></g><text x="10" text-anchor="start" class="highcharts-title" style="color:#000000;font-size:1.1em;font-weight:bold;fill:#000000;" y="20"><tspan>Abfallverbrennung</tspan></text><text x="10" text-anchor="start" class="highcharts-subtitle" style="color:#000000;font-size:0.9em;fill:#000000;" y="38"><tspan>Tonnen</tspan></text><g class="highcharts-legend" transform="translate(10,40)"><rect fill="none" class="highcharts-legend-box" rx="0" ry="0" x="0" y="0" width="148" height="38" visibility="visible"></rect><g><g><g class="highcharts-legend-item highcharts-column-series highcharts-color-undefined highcharts-series-0" transform="translate(12,7)"><text x="21" style="color:#333333;font-size:1em;font-weight:normal;cursor:pointer;fill:#333333;" text-anchor="start" y="15"><tspan>Kanton Basel-Stadt</tspan></text><rect x="2" y="4" width="12" height="12" fill="#FF8028" class="highcharts-point"></rect></g></g></g></g><g class="highcharts-axis-labels highcharts-xaxis-labels "><text x="65.38461538461539" style="color:#000000;cursor:default;font-size:0.9em;fill:#000000;" text-anchor="middle" transform="translate(0,0)" y="363" opacity="1">2003</text><text x="98.15384615384615" style="color:#000000;cursor:default;font-size:0.9em;fill:#000000;" text-anchor="middle" transform="translate(0,0)" y="363" opacity="1">2004</text><text x="130.92307692307693" style="color:#000000;cursor:default;font-size:0.9em;fill:#000000;" text-anchor="middle" transform="translate(0,0)" y="363" opacity="1">2005</text><text x="163.69230769230768" style="color:#000000;cursor:default;font-size:0.9em;fill:#000000;" text-anchor="middle" transform="translate(0,0)" y="363" opacity="1">2006</text><text x="196.46153846153845" style="color:#000000;cursor:default;font-size:0.9em;fill:#000000;" text-anchor="middle" transform="translate(0,0)" y="363" opacity="1">2007</text><text x="229.23076923076923" style="color:#000000;cursor:default;font-size:0.9em;fill:#000000;" text-anchor="middle" transform="translate(0,0)" y="363" opacity="1">2008</text><text x="262" style="color:#000000;cursor:default;font-size:0.9em;fill:#000000;" text-anchor="middle" transform="translate(0,0)" y="363" opacity="1">2009</text><text x="294.7692307692308" style="color:#000000;cursor:default;font-size:0.9em;fill:#000000;" text-anchor="middle" transform="translate(0,0)" y="363" opacity="1">2010</text><text x="327.5384615384615" style="color:#000000;cursor:default;font-size:0.9em;fill:#000000;" text-anchor="middle" transform="translate(0,0)" y="363" opacity="1">2011</text><text x="360.30769230769226" style="color:#000000;cursor:default;font-size:0.9em;fill:#000000;" text-anchor="middle" transform="translate(0,0)" y="363" opacity="1">2012</text><text x="393.07692307692304" style="color:#000000;cursor:default;font-size:0.9em;fill:#000000;" text-anchor="middle" transform="translate(0,0)" y="363" opacity="1">2013</text><text x="425.8461538461538" style="color:#000000;cursor:default;font-size:0.9em;fill:#000000;" text-anchor="middle" transform="translate(0,0)" y="363" opacity="1">2014</text><text x="458.6153846153846" style="color:#000000;cursor:default;font-size:0.9em;fill:#000000;" text-anchor="middle" transform="translate(0,0)" y="363" opacity="1">2015</text></g><g class="highcharts-axis-labels highcharts-yaxis-labels "><text x="34" style="color:#000000;cursor:default;font-size:0.9em;fill:#000000;" text-anchor="end" transform="translate(0,0)" y="349" opacity="1"><tspan>0</tspan></text><text x="34" style="color:#000000;cursor:default;font-size:0.9em;fill:#000000;" text-anchor="end" transform="translate(0,0)" y="285" opacity="1"><tspan>25k</tspan></text><text x="34" style="color:#000000;cursor:default;font-size:0.9em;fill:#000000;" text-anchor="end" transform="translate(0,0)" y="222" opacity="1"><tspan>50k</tspan></text><text x="34" style="color:#000000;cursor:default;font-size:0.9em;fill:#000000;" text-anchor="end" transform="translate(0,0)" y="158" opacity="1"><tspan>75k</tspan></text><text x="34" style="color:#000000;cursor:default;font-size:0.9em;fill:#000000;" text-anchor="end" transform="translate(0,0)" y="94" opacity="1"><tspan>100k</tspan></text></g><g class="highcharts-axis-labels highcharts-yaxis-labels "></g><text x="10" class="highcharts-credits" text-anchor="start" style="cursor:default;color:#000000;font-size:0.8em;fill:#000000;" y="400"><tspan>Quelle: Amt für Umwelt und Energie Basel-Stadt; Amt für Umweltschutz und Energie Basel-Landschaft</tspan></text></svg>

<svg class="highcharts-root" xmlns="http://www.w3.org/2000/svg" viewBox="0 0 485 415" font-family="Arial" font-size="12">
    <defs>
        <clipPath id="a">
            <path fill="none" d="M0 0h426v254H0z"/>
        </clipPath>
    </defs>
    <rect fill="#fbfbfb" class="highcharts-background" width="485" height="415" rx="0" ry="0"/>
    <path fill="none" class="highcharts-plot-background" d="M49 90h426v254H49z"/>
    <text transform="translate(10 451)" class="highcharts-label" cursor="pointer">
        <tspan>&gt; Indikator-Details</tspan>
    </text>
    <g class="highcharts-grid highcharts-xaxis-grid">
        <path fill="none" class="highcharts-grid-line" d="M81.5 90v254m0-254v254m33-254v254m0-254v254m32-254v254m0-254v254m33-254v254m0-254v254m33-254v254m0-254v254m33-254v254m0-254v254m32-254v254m0-254v254m33-254v254m0-254v254m33-254v254m0-254v254m33-254v254m0-254v254m32-254v254m0-254v254m33-254v254m0-254v254m33-254v254m0-254v254M48.5 90v254m0-254v254"/>
    </g>
    <g class="highcharts-grid highcharts-yaxis-grid">
        <path fill="none" stroke="#e6e6e6" class="highcharts-grid-line" d="M49 344.5h426m-426-63h426m-426-64h426m-426-63h426m-426-64h426"/>
    </g>
    <path fill="none" class="highcharts-plot-border" d="M49 90h426v254H49z"/>
    <g class="highcharts-axis highcharts-xaxis">
        <path fill="none" class="highcharts-axis-line" stroke="#ccd6eb" d="M49 344.5h426"/>
    </g>
    <g class="highcharts-axis highcharts-yaxis">
        <path fill="none" class="highcharts-axis-line" d="M49 90v254"/>
    </g>
    <g class="highcharts-axis highcharts-yaxis">
        <path fill="none" class="highcharts-axis-line" d="M475 90v254"/>
    </g>
    <g class="highcharts-series-group">
        <g class="highcharts-series highcharts-series-0 highcharts-column-series highcharts-color-undefined highcharts-tracker" transform="translate(49 90)" clip-path="url(#a)">
            <path fill="#FF8028" class="highcharts-point" d="M9 59h16v196H9zm32 10h16v186H41zm33 5h16v181H74zm33 0h16v181h-16zm33-2h16v183h-16zm32-2h16v185h-16zm33 0h16v185h-16zm33 12h16v173h-16zm33-2h16v175h-16zm32 3h16v172h-16zm33-1h16v173h-16zm33-3h16v176h-16zm33 4h16v172h-16z"/>
        </g>
    </g>
    <text x="10" class="highcharts-title" y="20" color="#000" font-size="1.1em" font-weight="700">
        <tspan>Abfallverbrennung</tspan>
    </text>
    <text x="10" class="highcharts-subtitle" y="38" color="#000" font-size=".9em">
        <tspan>Tonnen</tspan>
    </text>
    <g class="highcharts-legend" transform="translate(10 40)">
        <rect fill="none" class="highcharts-legend-box" rx="0" ry="0" width="148" height="38"/>
        <g class="highcharts-legend-item highcharts-column-series highcharts-color-undefined highcharts-series-0">
            <text x="21" y="15" color="#333" font-size="1em" font-weight="400" cursor="pointer" fill="#333" transform="translate(12 7)">
                <tspan>Kanton Basel-Stadt</tspan>
            </text>
            <path fill="#FF8028" class="highcharts-point" d="M14 11h12v12H14z"/>
        </g>
    </g>
    <g class="highcharts-axis-labels highcharts-xaxis-labels" text-anchor="middle" color="#000" cursor="default" font-size=".9em">
        <text x="65.385" y="363">
            2003
        </text>
        <text x="98.154" y="363">
            2004
        </text>
        <text x="130.923" y="363">
            2005
        </text>
        <text x="163.692" y="363">
            2006
        </text>
        <text x="196.462" y="363">
            2007
        </text>
        <text x="229.231" y="363">
            2008
        </text>
        <text x="262" y="363">
            2009
        </text>
        <text x="294.769" y="363">
            2010
        </text>
        <text x="327.538" y="363">
            2011
        </text>
        <text x="360.308" y="363">
            2012
        </text>
        <text x="393.077" y="363">
            2013
        </text>
        <text x="425.846" y="363">
            2014
        </text>
        <text x="458.615" y="363">
            2015
        </text>
    </g>
    <g class="highcharts-axis-labels highcharts-yaxis-labels" text-anchor="end" color="#000" cursor="default" font-size=".9em">
        <text x="34" y="349">
            <tspan>0</tspan>
        </text>
        <text x="34" y="285">
            <tspan>25k</tspan>
        </text>
        <text x="34" y="222">
            <tspan>50k</tspan>
        </text>
        <text x="34" y="158">
            <tspan>75k</tspan>
        </text>
        <text x="34" y="94">
            <tspan>100k</tspan>
        </text>
    </g>
    <text x="10" class="highcharts-credits" y="400" cursor="default" color="#000" font-size=".8em">
        <tspan>Quelle: Amt für Umwelt und Energie Basel-Stadt; Amt für Umweltschutz und Energie Basel-Landschaft</tspan>
    </text>
</svg>
